X: 1
T: The Caravan
R: jig
M: 6/8
L: 1/8
K: Gmaj
"G"  B2d dBd | "C" e2g gfe | "G" d2B BAG | "D" ABA     GED :|
"Em" DBA A2B | "D" d2B AGE | "C" DBA AGE | "D" G2A "C" GED :|
